X: 2205
Q: "Reel."
M: C
L: 1/8
K: Bb
uA |\
ug |\
fBdB FBDg |
fBdB Accg |\
[1 fBdB FBDF | EGFE DB,B, :|\
[2 fBAB GeFd | EGFE DB,B, |]


